X: 100334
T: TOM TULLIE'S HORNPIPE -- (Very Old)
R: hornpipe, reel
B: K\"ohler's Violin Repository, v.3, 1885 p.234 #3
F: http://www.archive.org/details/klersviolinrepos03rugg
Z: 2012 John Chambers <jc:trillian.mit.edu>
M: C|
L: 1/8
K: G
(uBc) | dcBA G(gfg) | e4 d4 | cdcB ABAG | F4 E4 | DEFG A2B2 |
c2(de) d2c2 | BAGF E2F2 | G6 :| ud2 | g2bg e2ag | f4 d4 | g2bg e2ag |
f4 d2ef | (gd)dd (gd)dd | gdgd (gd)dd | g2f2 (ed)cB |
ABAG F2E2 | DEFG A2B2 | c2(de) d2c2 | BAGF E2F2 | G6 "^D.C."|]

%%sep 2 1 500

